X:1
T:Unfortunate Rake
R:Jig
M:6/8
L:1/8
K:G
%%printtempo 0
Q:160
|: "Em"E2B BAG|"D" FDF AGF|"Em" E2B BAG|"D" FDF "Em"E2D|E2B BAG|"D"FDF AGF|"C"GAB AdB|AGF "Em"E3::
"Em"B2e efg|"Bm"fdB AFA |"Em" B2 e efg| "D"fdf "C"e2d|"Em"B2e efg |"Bm" fdB AGF|"G"GAB "D"AdB|AGF "Em"E3:|
